X:32
T:Grimstock. (p)1651.PLFD1.032
M:6/4
L:1/4
Q:3/4=90
S:Playford, Dancing Master,1st Ed.,1651.
O:England;London
H:1651.
Z:Chris Partington.
K:G
g2 f g2 d|e>fg f2 d|B>cd e2 d|cdB A2 G|
g2 f g2 d|e>fg f2 d|B>cd e2 d|c>BA G3:|
|:GGA BGA|BGA BGA|GGA BGA|BGAG3:|
